common/svg/clipboard-icon.svg

<svg fill="none" height="20" viewBox="0 0 20 20" width="20" xmlns="http://www.w3.org/2000/svg"><g stroke="#000" stroke-linecap="round" stroke-linejoin="round" stroke-width="2"><path d="m13.3333 3.33337h1.6667c.442 0 .866.1756 1.1785.48816.3126.31256.4882.73648.4882 1.17851v11.66666c0 .442-.1756.866-.4882 1.1785-.3125.3126-.7365.4882-1.1785.4882h-9.99999c-.44203 0-.86595-.1756-1.17851-.4882-.31256-.3125-.48816-.7365-.48816-1.1785v-11.66666c0-.44203.1756-.86595.48816-1.17851s.73648-.48816 1.17851-.48816h1.66667"/><path d="m12.5 1.66663h-5.00001c-.46024 0-.83333.37309-.83333.83333v1.66667c0 .46023.37309.83333.83333.83333h5.00001c.4602 0 .8333-.3731.8333-.83333v-1.66667c0-.46024-.3731-.83333-.8333-.83333z"/></g></svg>

<svg width="20" height="20" viewBox="0 0 20 20" fill="none" xmlns="http://www.w3.org/2000/svg">
<path d="M13.3333 3.33337H15C15.442 3.33337 15.866 3.50897 16.1785 3.82153C16.4911 4.13409 16.6667 4.55801 16.6667 5.00004V16.6667C16.6667 17.1087 16.4911 17.5327 16.1785 17.8452C15.866 18.1578 15.442 18.3334 15 18.3334H5.00001C4.55798 18.3334 4.13406 18.1578 3.8215 17.8452C3.50894 17.5327 3.33334 17.1087 3.33334 16.6667V5.00004C3.33334 4.55801 3.50894 4.13409 3.8215 3.82153C4.13406 3.50897 4.55798 3.33337 5.00001 3.33337H6.66668" stroke="black" stroke-width="2" stroke-linecap="round" stroke-linejoin="round"/>
<path d="M12.5 1.66663H7.49999C7.03975 1.66663 6.66666 2.03972 6.66666 2.49996V4.16663C6.66666 4.62686 7.03975 4.99996 7.49999 4.99996H12.5C12.9602 4.99996 13.3333 4.62686 13.3333 4.16663V2.49996C13.3333 2.03972 12.9602 1.66663 12.5 1.66663Z" stroke="black" stroke-width="2" stroke-linecap="round" stroke-linejoin="round"/>
</svg>
